svgs/acode.svg

<svg width="192" height="192" viewBox="0 0 192 192" fill="none" xmlns="http://www.w3.org/2000/svg">
<path d="M22 98.3014L48.8332 71.4384H75.726L48.8928 98.3014L75.726 125.164H48.8332L22 98.3014Z" stroke="black" stroke-width="12" stroke-linecap="round" stroke-linejoin="round"/>
<path d="M170 98.3014L143.167 71.4384H116.274L143.107 98.3014L116.274 125.164H143.167L170 98.3014Z" stroke="black" stroke-width="12" stroke-linecap="round" stroke-linejoin="round"/>
<path d="M69.6439 153.548L95.0075 39.7956C95.1112 39.3307 95.5237 39 96 39V39C96.4764 39 96.8889 39.3307 96.9926 39.7956L122.356 153.548" stroke="black" stroke-width="12" stroke-linecap="round" stroke-linejoin="round"/>
</svg>

<svg width="192" height="192" viewBox="0 0 192 192" fill="none" xmlns="http://www.w3.org/2000/svg"><path d="m22 98.301 26.833-26.863h26.893L48.893 98.301l26.833 26.863H48.833L22 98.301ZM170 98.301l-26.833-26.863h-26.893l26.833 26.863-26.833 26.863h26.893L170 98.301ZM69.644 153.548 95.007 39.796c.104-.465.517-.796.993-.796v0c.476 0 .889.33.993.796l25.363 113.752" stroke="#000" stroke-width="12" stroke-linecap="round" stroke-linejoin="round"/></svg>
